icons/1_Primary/BingX.svg

<svg xmlns="http://www.w3.org/2000/svg" viewBox="0 0 1024 1024">
   <circle cx="512" cy="512" r="512" style="fill:#2a54ff"/>
   <path d="M272 323.86h2.57c35.81.36 71.57 6.33 105.46 17.94 49.92 16.93 95.59 46.14 131.97 84.27a332.335 332.335 0 0 1 44.54 58.88c5.57 9.46 11.65 18.65 18.67 27.1 17.31 21.68 38.56 40.26 62.57 54.19 34.43 20.17 74.33 30.61 114.19 30.56.05 34.45.01 68.89.01 103.33-63.69 0-127.37-18.44-180.78-53.23-21.57-13.92-41.43-30.45-59.22-48.94-11.76-12.58-22.73-25.91-32.46-40.12-10.59-15.08-18.73-31.83-30.76-45.9-17.42-21.83-38.83-40.49-63.03-54.47-34.32-19.99-74.05-30.31-113.73-30.28V323.84Zm294.88 155c5.49 9.32 10.8 17.13 16.17 23.81 14.05-15.9 30.41-29.76 48.36-41.08 35.8-22.63 78.18-34.51 120.5-34.38.18-34.45.03-68.91.07-103.35h-2.63c-32.32.34-64.61 5.21-95.5 14.74-36.17 11.02-70.37 28.39-100.66 51.02a322.64 322.64 0 0 0-32.74 27.93c.09.09.18.18.26.27a344.414 344.414 0 0 1 46.17 61.05Zm-63.61 127.36-.06-.06c-12.78-13.67-24.07-27.63-33.55-41.47-4.28-6.1-8.14-12.4-11.88-18.49-5.46-8.91-10.66-17.34-16.85-24.88-14.05 15.9-30.4 29.76-48.35 41.07-35.82 22.68-78.23 34.48-120.58 34.42v103.35c63.84-.01 127.7-18.52 181.18-53.51 6.01-3.87 11.86-7.98 17.59-12.26 11.52-8.55 22.46-17.9 32.74-27.91-.06-.07-.13-.13-.19-.2l-.06-.06Z" style="fill:#fff"/>
</svg>

<svg width="1024" height="1024" viewBox="0 0 1024 1024" fill="none" xmlns="http://www.w3.org/2000/svg">
<g clip-path="url(#clip0_2_1596)">
<path d="M512 1024C794.77 1024 1024 794.77 1024 512C1024 229.23 794.77 0 512 0C229.23 0 0 229.23 0 512C0 794.77 229.23 1024 512 1024Z" fill="#728DBE"/>
<path d="M272 323.86H274.57C310.38 324.22 346.14 330.19 380.03 341.8C429.95 358.73 475.62 387.94 512 426.07C528.987 443.981 543.926 463.73 556.54 484.95C562.11 494.41 568.19 503.6 575.21 512.05C592.52 533.73 613.77 552.31 637.78 566.24C672.21 586.41 712.11 596.85 751.97 596.8C752.02 631.25 751.98 665.69 751.98 700.13C688.29 700.13 624.61 681.69 571.2 646.9C549.63 632.98 529.77 616.45 511.98 597.96C500.22 585.38 489.25 572.05 479.52 557.84C468.93 542.76 460.79 526.01 448.76 511.94C431.34 490.11 409.93 471.45 385.73 457.47C351.41 437.48 311.68 427.16 272 427.19V323.84V323.86ZM566.88 478.86C572.37 488.18 577.68 495.99 583.05 502.67C597.1 486.77 613.46 472.91 631.41 461.59C667.21 438.96 709.59 427.08 751.91 427.21C752.09 392.76 751.94 358.3 751.98 323.86H749.35C717.03 324.2 684.74 329.07 653.85 338.6C617.68 349.62 583.48 366.99 553.19 389.62C541.667 398.191 530.73 407.522 520.45 417.55C520.54 417.64 520.63 417.73 520.71 417.82C538.321 436.391 553.806 456.868 566.88 478.87V478.86ZM503.27 606.22L503.21 606.16C490.43 592.49 479.14 578.53 469.66 564.69C465.38 558.59 461.52 552.29 457.78 546.2C452.32 537.29 447.12 528.86 440.93 521.32C426.88 537.22 410.53 551.08 392.58 562.39C356.76 585.07 314.35 596.87 272 596.81V700.16C335.84 700.15 399.7 681.64 453.18 646.65C459.19 642.78 465.04 638.67 470.77 634.39C482.29 625.84 493.23 616.49 503.51 606.48C503.45 606.41 503.38 606.35 503.32 606.28L503.26 606.22H503.27Z" fill="white"/>
</g>
<defs>
<clipPath id="clip0_2_1596">
<rect width="1024" height="1024" fill="white"/>
</clipPath>
</defs>
</svg>
